src/assets/images/mouth/37.svg

<svg width="32" height="32" viewBox="0 0 32 32" fill="none" xmlns="http://www.w3.org/2000/svg">
<rect x="7.25" y="20.25" width="17.5" height="8.5" rx="1.25" fill="url(#paint0_linear_909_3185)" stroke="url(#paint1_linear_909_3185)" stroke-width="0.5"/>
<rect x="21" y="20" width="4" height="8" rx="1.5" fill="url(#paint2_radial_909_3185)"/>
<path fill-rule="evenodd" clip-rule="evenodd" d="M12.1756 22.0318C12.4341 22.1288 12.5651 22.417 12.4682 22.6756L12.3465 23H13.7785L14.0318 22.3245C14.1288 22.0659 14.417 21.9349 14.6756 22.0318C14.9341 22.1288 15.0651 22.417 14.9682 22.6756L14.8465 23H15C15.2761 23 15.5 23.2239 15.5 23.5C15.5 23.7762 15.2761 24 15 24H14.4715L14.0965 25H14.5C14.7761 25 15 25.2239 15 25.5C15 25.7762 14.7761 26 14.5 26H13.7215L13.4682 26.6756C13.3712 26.9341 13.083 27.0651 12.8244 26.9682C12.5659 26.8712 12.4349 26.583 12.5318 26.3245L12.6535 26H11.2215L10.9682 26.6756C10.8712 26.9341 10.583 27.0651 10.3244 26.9682C10.0659 26.8712 9.93488 26.583 10.0318 26.3245L10.1535 26H10C9.72386 26 9.5 25.7762 9.5 25.5C9.5 25.2239 9.72386 25 10 25H10.5285L10.9035 24H10.5C10.2239 24 10 23.7762 10 23.5C10 23.2239 10.2239 23 10.5 23H11.2785L11.5318 22.3245C11.6288 22.0659 11.917 21.9349 12.1756 22.0318ZM13.4035 24L13.0285 25H11.5965L11.9715 24H13.4035ZM18.9682 22.6756C19.0651 22.417 18.9341 22.1288 18.6756 22.0318C18.417 21.9349 18.1288 22.0659 18.0318 22.3245L16.5318 26.3245C16.4349 26.583 16.5659 26.8712 16.8244 26.9682C17.083 27.0651 17.3712 26.9341 17.4682 26.6756L18.9682 22.6756ZM19 27C19.2761 27 19.5 26.7762 19.5 26.5C19.5 26.2239 19.2761 26 19 26C18.7239 26 18.5 26.2239 18.5 26.5C18.5 26.7762 18.7239 27 19 27ZM22 22.5C22 22.2239 21.7761 22 21.5 22C21.2239 22 21 22.2239 21 22.5V24.5C21 24.7762 21.2239 25 21.5 25C21.7761 25 22 24.7762 22 24.5V22.5ZM16.5 23C16.7761 23 17 22.7762 17 22.5C17 22.2239 16.7761 22 16.5 22C16.2239 22 16 22.2239 16 22.5C16 22.7762 16.2239 23 16.5 23ZM22 26.5C22 26.7762 21.7761 27 21.5 27C21.2239 27 21 26.7762 21 26.5C21 26.2239 21.2239 26 21.5 26C21.7761 26 22 26.2239 22 26.5Z" fill="white"/>
<defs>
<linearGradient id="paint0_linear_909_3185" x1="16" y1="29" x2="16" y2="26" gradientUnits="userSpaceOnUse">
<stop stop-color="#5A2A67"/>
<stop offset="1" stop-color="#553A55"/>
</linearGradient>
<linearGradient id="paint1_linear_909_3185" x1="7" y1="20.5" x2="25.5" y2="29" gradientUnits="userSpaceOnUse">
<stop stop-color="#463246"/>
<stop offset="1" stop-color="#463246" stop-opacity="0"/>
</linearGradient>
<radialGradient id="paint2_radial_909_3185" cx="0" cy="0" r="1" gradientUnits="userSpaceOnUse" gradientTransform="translate(24 21) rotate(90) scale(11 1.33006)">
<stop stop-color="#685A60"/>
<stop offset="0.738271" stop-color="#685A60" stop-opacity="0"/>
</radialGradient>
</defs>
</svg>

<svg width="32" height="32" fill="none" xmlns="http://www.w3.org/2000/svg"><rect x="7.25" y="20.25" width="17.5" height="8.5" rx="1.25" fill="url(#a)" stroke="url(#b)" stroke-width=".5"/><rect x="21" y="20" width="4" height="8" rx="1.5" fill="url(#c)"/><path fill-rule="evenodd" clip-rule="evenodd" d="M12.176 22.032a.5.5 0 0 1 .292.644l-.121.324h1.431l.254-.675a.5.5 0 0 1 .936.35l-.121.325H15a.5.5 0 0 1 0 1h-.528l-.375 1h.403a.5.5 0 0 1 0 1h-.778l-.254.676a.5.5 0 0 1-.936-.351l.121-.325h-1.431l-.254.676a.5.5 0 0 1-.936-.351l.121-.325H10a.5.5 0 1 1 0-1h.528l.375-1H10.5a.5.5 0 1 1 0-1h.778l.254-.675a.5.5 0 0 1 .644-.293zM13.403 24l-.375 1h-1.431l.375-1h1.431zm5.565-1.324a.5.5 0 0 0-.936-.351l-1.5 4a.5.5 0 0 0 .936.35l1.5-4zM19 27a.5.5 0 1 0 0-1 .5.5 0 0 0 0 1zm3-4.5a.5.5 0 0 0-1 0v2a.5.5 0 1 0 1 0v-2zm-5.5.5a.5.5 0 1 0 0-1 .5.5 0 0 0 0 1zm5.5 3.5a.5.5 0 1 1-1 0 .5.5 0 0 1 1 0z" fill="#fff"/><defs><linearGradient id="a" x1="16" y1="29" x2="16" y2="26" gradientUnits="userSpaceOnUse"><stop stop-color="#5A2A67"/><stop offset="1" stop-color="#553A55"/></linearGradient><linearGradient id="b" x1="7" y1="20.5" x2="25.5" y2="29" gradientUnits="userSpaceOnUse"><stop stop-color="#463246"/><stop offset="1" stop-color="#463246" stop-opacity="0"/></linearGradient><radialGradient id="c" cx="0" cy="0" r="1" gradientUnits="userSpaceOnUse" gradientTransform="matrix(0 11 -1.33006 0 24 21)"><stop stop-color="#685A60"/><stop offset=".738" stop-color="#685A60" stop-opacity="0"/></radialGradient></defs></svg>
